X:1
T:Symphony No. 7 (2nd mvt Allegretto)
C:Ludwig van Beethoven
K:Am
M:2/4
L:1/8
Q:76
% Famous ostinato: long (♩) short (♪) short (♪) — captured as A2 A A per bar
% Theme centres on E4–A4 with G# leading tone (harmonic minor)
E2 E E | E2 E2 | A2 A A | A2 A2 |
^G2 A A | A2 E2 | F2 G A | E4 |
E2 E E | A2 ^G A | A G F E | A4 |]
